X:1
T:[ID 3-3b]
T:[ID 3-3b]
T:Bezeichnung standardisiert: Pursue the French [Sammelbezeichnung]; Holl\"andisch In dieser Quelle auch: Musetto 2.; Tantz 17.; In anderer Quelle: Pursue the French - J. Johnson Choice Collection Vol. 2 nach 1750 (Anm. S. Wascher); Dursue the French - Manuscrit Cinquantenaire 1779 (Anm. S. Wascher);
T:Urheber unbekannt Erstbeleg: nach 1750 (Datum in der schriftlichen Quelle) Datum in der hier transkribierten schriftlichen Quelle: 1796
C:Urheber unbekannt
C:Erstbeleg: nach 1750 (Datum in der schriftlichen Quelle)
C:Datum in der hier transkribierten schriftlichen Quelle: 1796
L:1/8
M:2/4
K:D
V:1 treble 
V:1
 ff/a/ gg/b/ | aa a2 | gg/e/ ff/d/ | ee e2 | d/e/f/g/ f/g/a/b/ | aa a2 | g/f/e/d/ f/e/d/c/ | %7
 dd d2 :: aa/f/ gg/e/ | ff/d/ e2 | AA/F/ GG/E/ | FF/D/ E2 | FF/A/ GG/B/ | AA A2 | %14
 g/f/e/d/ f/e/d/c/ | dd d2 :| %16

